X:1
T:An Acre of Land
M:6/8
L:1/8
K:F
 z4 z A| F2 F F2 A/2A/2| F3/2 F/2 F F3| c3 c2 B| A2 B c2 c| d2 d Bcd|\
 cdB A3| F2 G ABA| AGF D2 E| F2 z z3| z6| z6| z6| z6| z6|

